X:1
T:Sound the Battle Cry
T:Sound the Battle Cry
T:William Fiske Sherwin
T:William Fiske Sherwin, 1869
T:Public Domain Courtesy of the Cyber Hymnal™
T:Public Domain Courtesy of the Cyber Hymnal™
C:William Fiske Sherwin
Z:Public Domain
Z:Courtesy of the Cyber Hymnal™
%%score ( 1 2 ) ( 3 4 )
L:1/8
Q:1/4=110
M:4/4
K:Bb
V:1 treble 
V:2 treble 
V:3 bass 
V:4 bass 
V:1
 [DF]2 [DF]2 [B,D]>[CE] [DF]2 | [EG]2 [Ge]2 [Fd]>[Ec] [DB]2 | [Fc]2 [Fd]2 [Fc]>[FA] F2 | %3
w: 1.~Sound the bat- tle cry!|See, the foe is nigh;|Raise the stan- dard high|
w: 2.~Strong to meet the foe,|march- ing on we go,|While our cause we know,|
w: 3.~O! Thou God of all,|hear us when we call,|Help us one and all|
 [=EG]2 (GA) F4 | [DF]2 [DF]2 [B,D]>[CE] [DF]2 | [EG]2 [Ge]2 [Fd]>[Ec] [DB]2 | %6
w: for the * Lord;|Gird your ar- mor on,|stand firm ev- ery one;|
w: must pre- * vail;|Shield and ban- ner bright,|gleam- ing in the light,|
w: by Thy * grace;|When the bat- tle’s done,|and the vic- t’ry’s won,|
 [Fd]2 [Ff]2 [DB]>[CA] [DB][Ec] | [Fd]2 [Ec]2 [DB]4 ||"^Refrain" [Fd]2 [DB]2!ff! [Fd]2 [DB]2 | %9
w: Rest your cause up- on His|ho- ly Word.||
w: Bat- tling for the right we|ne’er can fail.|Rouse, then, sol- diers,|
w: May we wear the crown be-|fore Thy face.||
 [Ec]>[D=B] [Ec]>[Ge] [Fd]2 [D_B]2 | [^Fd]2 [FA]2 [GB]2 G2 | [=Ec]>[GB] [FA]>[EG] (z2 G/A/B/c/) | %12
w: |||
w: ral- ly round the ban- ner,|Rea- dy, stea- dy,|pass the word a- * * * *|
w: |||
 [Fd]2 [DB]2 [Fd]2 [DB]2 | [Ec]>[D=B] [Ec]>[Ge] [Fd]2 [D_B]2 | [Fd]2 [Ff]2 [DB]>[CA] [DB][Ec] | %15
w: |||
w: * long; On- ward,|for- ward, shout a- loud Ho-|san- na! Christ is Cap- tain|
w: |||
 [Fd]2 [Ec]2 [DB]4 |] %16
w: |
w: of the might-|
w: |
V:2
 x8 | x8 | x6 F2 | x2 =E2 F4 | x8 | x8 | x8 | x8 || x8 | x8 | x8 | x4 F4 | x8 | x8 | x8 | x8 |] %16
V:3
 [B,,B,]2 [B,,B,]2 [B,,F,]>[B,,F,] [B,,B,]2 | [E,B,]2 [E,B,]2 [B,,B,]>[B,,B,] [B,,B,]2 | %2
 [F,A,]2 [F,B,]2 [F,A,]>[F,C] [F,A,]2 | [C,B,]2 (B,C) [F,A,]4 | %4
 [B,,B,]2 [B,,B,]2 [B,,B,]>[B,,B,] [B,,B,]2 | [E,B,]2 [E,B,]2 [B,,B,]>[B,,B,] [B,,B,]2 | %6
 [B,,B,]2 [D,B,]2 [G,B,]>[G,C] [G,B,][G,B,] | [F,B,]2 [F,A,]2 [B,,B,]4 || %8
 B,2 [B,,B,]2 B,2 [B,,B,]2 | [F,A,]>[F,A,] [F,A,]>[F,A,] B,2 [B,,B,]2 | %10
 [D,A,]2 [D,D]2 [G,D]2 [G,B,]2 | [C,G,]>[C,C] [C,C]>[C,B,] [F,A,]4 | B,2 [B,,B,]2 B,2 [B,,B,]2 | %13
 [F,A,]>[F,A,] [F,A,]>[F,A,] B,2 [B,,F,]2 | [B,,B,]2 [D,B,]2 [G,B,]>[G,C] [G,B,][G,B,] | %15
 [F,B,]2 [F,A,]2 [B,,B,]4 |] %16
V:4
 x8 | x8 | x8 | x2 C,2 x4 | x8 | x8 | x8 | x8 || B,2 B,2 x4 | x4 B,2 x2 | x8 | x8 | B,2 B,2 x4 | %13
 x4 B,2 x2 | x8 | x8 |] %16

